public/images/Facetime.svg

<svg width="428" height="428" viewBox="0 0 428 428" fill="none" xmlns="http://www.w3.org/2000/svg">
<g id="Facetime 3 1">
<g id="person">
<path id="Vector" opacity="0.03" d="M38.3145 340.372C38.3145 338.531 0.239647 233.877 49.2456 159.593C65.8092 134.478 109.32 66.306 210.662 75.9445C277.258 82.2789 480.67 107.779 378.634 339.165L325.648 346.8L135.77 341.75L38.3145 340.363V340.372Z" fill="#000001"/>
<path id="Vector_2" opacity="0.58" d="M365.965 319.434C365.965 319.434 350.575 315.299 347.176 301.013C347.176 301.013 370.973 296.099 371.752 320.675L365.965 319.434Z" fill="#93CA88"/>
<path id="Vector_3" opacity="0.73" d="M367.84 317.901C367.84 317.901 357.029 300.97 366.411 285.057C366.411 285.057 384.567 296.484 376.614 317.901H367.84Z" fill="#93CA88"/>
<path id="Vector_4" d="M370.605 317.902C370.605 317.902 376.203 299.951 393.34 296.484C393.34 296.484 396.602 308.109 382.324 317.902H370.605Z" fill="#93CA88"/>
<path id="Vector_5" d="M359.46 317.542L362.661 338.848H382.289L385.089 317.542H359.46Z" fill="#142A6F"/>
<path id="Vector_6" d="M314.289 338.848L329.363 287.753H256.141L245.518 329.44L218.99 330.861V338.848H314.289Z" fill="#E6E6E6"/>
<path id="Vector_7" d="M393.469 338.848H27.8457V354.769H393.469V338.848Z" fill="#E6E6E6"/>
<path id="Vector_8" d="M393.469 354.77H27.8457V369.022H393.469V354.77Z" fill="#E6E6E6"/>
<path id="Vector_9" d="M93.6719 251.339C93.6719 251.339 122.553 230.581 156.254 234.878C189.946 239.175 202.872 247.641 205.269 287.24C207.657 326.838 189.022 369.022 189.022 369.022L133.775 368.508L93.6719 251.339Z" fill="#93CA88"/>
<path id="Vector_10" opacity="0.08" d="M114.533 240.63C114.533 240.63 142.455 255.208 145.314 292.786C148.173 330.365 153.232 357.312 193.593 357.115L189.022 369.03L133.775 368.517L93.6719 251.348C93.6719 251.348 106.401 243.335 114.533 240.639V240.63Z" fill="#000001"/>
<path id="Vector_11" d="M21.9735 368.508H133.759C133.759 368.508 136.344 305.327 116.416 269.049C96.4883 232.772 -30.7647 236.521 21.9649 368.508H21.9735Z" fill="#142A6F"/>
<path id="Vector_12" d="M123.033 218.742L129.907 236.093L114.533 240.63L110.287 214.788L123.033 218.742Z" fill="#F4A28C"/>
<path id="Vector_13" d="M104.218 201.349C107.069 194.193 116.536 192.635 121.869 198.207C127.707 204.319 134.777 214.06 126.945 219.479C114.961 227.773 103.739 212.614 103.739 212.614C103.739 212.614 102.061 206.776 104.218 201.349Z" fill="#F4A28C"/>
<path id="Vector_14" d="M108.618 212.023C108.618 212.023 104.766 210.824 104.886 214.753C105.005 218.682 110.732 218.22 111.52 215.883C112.316 213.546 108.609 212.023 108.609 212.023H108.618Z" fill="#F4A28C"/>
<path id="Vector_15" d="M157.35 266.918C154.568 250.132 173.494 238.293 187.413 248.086C196.358 254.378 204.841 264.187 209.446 279.475C222.106 321.548 244.799 346.723 302.998 332.428L306.482 347.433C306.482 347.433 177.886 390.935 157.35 266.918Z" fill="#F4A28C"/>
<path id="Vector_16" d="M101.41 208.411C101.41 208.411 104.492 221.995 111.64 221.97C118.787 221.944 118.222 217.364 116.759 208.411C115.295 199.457 125.918 202.11 124.488 191.898C123.059 181.686 122.374 182.097 113.018 182.705C103.662 183.313 91.8147 191.222 101.41 208.402V208.411Z" fill="#FFD200"/>
<path id="Vector_17" d="M307.219 330.459C307.219 330.459 314.152 326.453 320.23 328.011C326.461 329.611 327.095 338.3 321.317 341.133L309.761 346.808L307.21 330.459H307.219Z" fill="#F4A28C"/>
<path id="Vector_18" d="M263.605 294.721L254.42 327.652H307.107L316.104 294.721H263.605Z" fill="white"/>
<path id="Vector_19" d="M171.234 308.948L212.605 288.969C212.605 288.969 207.366 243.618 171.234 240.631C135.103 237.643 158.352 296.108 171.234 308.948Z" fill="#93CA88"/>
<path id="Vector_20" opacity="0.2" d="M171.234 308.948L212.605 288.969C212.605 288.969 207.366 243.618 171.234 240.631C135.103 237.643 158.352 296.108 171.234 308.948Z" fill="white"/>
<path id="Vector_21" d="M277.849 303.606L274.177 317.491L295.003 310.549L277.849 303.606Z" fill="#A5A5A5"/>
<path id="Vector_22" opacity="0.31" d="M114.533 240.63L120.773 238.79L116.51 220.377C116.51 220.377 108.147 217.45 108.258 206.425C108.258 206.425 97.8494 197.479 109.662 183.227C109.662 183.227 99.1077 185.11 97.8836 195.767C97.8836 195.767 97.4214 201.819 101.402 208.411C101.402 208.411 104.5 221.987 111.631 221.97L114.524 240.63H114.533Z" fill="#CE8172"/>
<path id="Vector_23" d="M306.842 329.859L296.149 332.545L300.743 350.834L311.436 348.149L306.842 329.859Z" fill="#142A6F"/>
<path id="Vector_24" d="M303.777 347.382C307.649 347.382 310.788 344.243 310.788 340.371C310.788 336.5 307.649 333.361 303.777 333.361C299.905 333.361 296.767 336.5 296.767 340.371C296.767 344.243 299.905 347.382 303.777 347.382Z" fill="#FFD200"/>
<path id="Vector_25" opacity="0.31" d="M186.326 301.655C186.326 301.655 207.186 364.46 298.992 343.984L300.311 349.223C300.311 349.223 208.291 377.659 171.234 308.948L186.326 301.655Z" fill="#CE8172"/>
<path id="Vector_26" opacity="0.08" d="M186.325 301.655L171.234 308.948C171.234 308.948 139.81 265.129 157.067 244.397C157.067 244.397 163.898 284.055 186.325 301.655Z" fill="#000001"/>
</g>
<g id="video">
<path id="Vector_27" d="M386.33 51.8394H189.758V202.256H386.33V51.8394Z" fill="#142A6F"/>
<path id="Vector_28" d="M295.543 66.3062L307.801 93.3215L291.845 105.16L288.669 79.7454L295.543 66.3062Z" fill="#F4A28C"/>
<path id="Vector_29" opacity="0.31" d="M288.754 80.464C288.754 80.464 298.778 78.9061 300.062 75.9443C300.062 75.9443 308.485 91.1383 290.381 92.6192L288.763 80.464H288.754Z" fill="#CE8172"/>
<path id="Vector_30" d="M282.104 114.302C282.104 114.302 200.904 182.945 170.935 101.205L156.991 109.602C156.991 109.602 166.792 213.05 288.755 166.098L282.104 114.302Z" fill="#93CA88"/>
<path id="Vector_31" opacity="0.2" d="M282.104 114.302C282.104 114.302 200.904 182.945 170.935 101.205L156.991 109.602C156.991 109.602 166.792 213.05 288.755 166.098L282.104 114.302Z" fill="white"/>
<path id="Vector_32" d="M291.845 105.16C291.845 105.16 260.695 128.212 270.53 154.696C280.366 181.181 302.673 202.256 302.673 202.256H386.322C386.322 202.256 385.431 181.609 382.992 159.019C379.482 126.508 367.678 88.8443 307.801 93.3212L291.845 105.16Z" fill="#93CA88"/>
<path id="Vector_33" opacity="0.08" d="M338 114.302C338 114.302 326.838 125.532 331.486 139.768C336.134 154.003 351.465 199.268 317.08 194.988L344.805 198.344L373.772 194.988L386.527 164.823L364.014 133.082L338 114.302Z" fill="#000001"/>
<path id="Vector_34" d="M217.621 72.0752V113.172L259.188 90.8473L217.621 72.0752Z" fill="white"/>
<path id="Vector_35" d="M268.621 202.256L255.747 152.137H327.574L334.525 193.028L364.023 194.424V202.256H268.621Z" fill="#FFD200"/>
<path id="Vector_36" d="M296.929 182.927C300.3 182.927 303.033 180.195 303.033 176.824C303.033 173.453 300.3 170.721 296.929 170.721C293.559 170.721 290.826 173.453 290.826 176.824C290.826 180.195 293.559 182.927 296.929 182.927Z" fill="white"/>
<path id="Vector_37" d="M159.447 108.13C159.447 108.13 147.831 96.771 153.412 87.7487C158.985 78.7179 172.33 80.1303 170.935 101.205L159.447 108.13Z" fill="#F4A28C"/>
<path id="Vector_38" d="M358.613 103.782C369.218 108.447 380.312 116.485 386.527 130.292L386.321 202.248H371.915L365.854 189.87C365.854 189.87 373.276 159.918 349.821 136.909C346.047 133.211 343.016 129.676 340.577 126.355C331.572 114.062 344.651 97.6358 358.604 103.773L358.613 103.782Z" fill="#93CA88"/>
<path id="Vector_39" opacity="0.2" d="M358.613 103.782C369.218 108.447 380.312 116.485 386.527 130.292L386.321 202.248H371.915L365.854 189.87C365.854 189.87 373.276 159.918 349.821 136.909C346.047 133.211 343.016 129.676 340.577 126.355C331.572 114.062 344.651 97.6358 358.604 103.773L358.613 103.782Z" fill="white"/>
<path id="Vector_40" d="M300.02 68.54C299.926 71.0138 299.883 73.4791 300.062 75.9529C300.311 79.3341 299.763 84.4616 294.55 86.0109C286.503 88.3992 282.951 75.6533 282.951 75.6533C282.951 75.6533 276.497 64.046 285.202 61.4266C293.035 59.0726 300.465 57.198 300.02 68.54Z" fill="#F4A28C"/>
<path id="Vector_41" d="M278.089 57.3008C276.257 58.3109 274.716 59.7918 274.014 61.7606C273.355 63.6096 273.21 65.8095 274.913 67.59C278.594 71.442 282.943 75.6535 282.943 75.6535C282.943 75.6535 279.604 69.0965 285.476 69.088C291.348 69.0794 296.407 72.9999 300.011 68.5401C303.615 64.0804 305.952 61.6493 304.325 57.3693C302.69 53.0893 302.947 47.7222 296.553 50.1104C290.159 52.5072 292.65 47.5767 289.02 44.4095C285.391 41.2423 279.51 41.7045 280.032 46.1643C280.486 50.0591 281.744 55.2807 278.089 57.3008Z" fill="#FFD200"/>
<path id="Vector_42" d="M283.516 76.1242C283.516 76.1242 282.626 72.2294 279.21 72.7601C275.795 73.2909 277.926 80.5155 283.516 76.1242Z" fill="#F4A28C"/>
<path id="Vector_43" d="M298.821 76.1757C298.821 76.1757 297.212 72.5206 300.276 70.9113C303.341 69.302 305.926 76.3726 298.821 76.1757Z" fill="#F4A28C"/>
<path id="Vector_44" d="M371.915 202.256C371.915 194.843 366.334 188.577 358.955 187.832C354.821 187.422 351.054 188.038 350.07 191.282C347.63 199.303 364.014 202.256 364.014 202.256H371.915Z" fill="#F4A28C"/>
<path id="Vector_45" d="M306.106 89.5807C306.106 89.5807 289.328 95.5299 288.661 107.788C288.661 107.788 305.935 106.744 314.101 92.9962C314.101 92.9962 311.704 88.4851 306.106 89.5807Z" fill="white"/>
</g>
</g>
</svg>

<svg xmlns="http://www.w3.org/2000/svg" width="428" height="428" fill="none"><path fill="#000001" d="M38.315 340.372c0-1.841-38.075-106.495 10.93-180.779 16.564-25.115 60.075-93.287 161.417-83.648 66.596 6.334 270.008 31.834 167.972 263.22l-52.986 7.635-189.878-5.05-97.455-1.387z" opacity=".03"/><path fill="#93CA88" d="M365.965 319.434s-15.39-4.135-18.789-18.421c0 0 23.797-4.914 24.576 19.662z" opacity=".58"/><path fill="#93CA88" d="M367.84 317.901s-10.811-16.931-1.429-32.844c0 0 18.156 11.427 10.203 32.844z" opacity=".73"/><path fill="#93CA88" d="M370.605 317.902s5.598-17.951 22.735-21.418c0 0 3.262 11.625-11.016 21.418z"/><path fill="#142A6F" d="m359.46 317.542 3.201 21.306h19.628l2.8-21.306z"/><path fill="#E6E6E6" d="m314.289 338.848 15.074-51.095h-73.222l-10.623 41.687-26.528 1.421v7.987z"/><path fill="#E6E6E6" d="M393.469 338.848H27.846v15.921h365.623zM393.469 354.77H27.846v14.252h365.623z"/><path fill="#93CA88" d="M93.672 251.339s28.881-20.758 62.582-16.461c33.692 4.297 46.618 12.763 49.015 52.362 2.388 39.598-16.247 81.782-16.247 81.782l-55.247-.514z"/><path fill="#000001" d="M114.533 240.63s27.922 14.578 30.781 52.156 7.918 64.526 48.279 64.329l-4.571 11.915-55.247-.513-40.103-117.169s12.729-8.013 20.861-10.709z" opacity=".08"/><path fill="#142A6F" d="M21.974 368.508h111.785s2.585-63.181-17.343-99.459c-19.928-36.277-147.18-32.528-94.451 99.459z"/><path fill="#F4A28C" d="m123.033 218.742 6.874 17.351-15.374 4.537-4.246-25.842z"/><path fill="#F4A28C" d="M104.218 201.349c2.851-7.156 12.318-8.714 17.651-3.142 5.838 6.112 12.908 15.853 5.076 21.272-11.984 8.294-23.206-6.865-23.206-6.865s-1.678-5.838.479-11.265"/><path fill="#F4A28C" d="M108.618 212.023s-3.852-1.199-3.732 2.73 5.846 3.467 6.634 1.13c.796-2.337-2.911-3.86-2.911-3.86zM157.35 266.918c-2.782-16.786 16.144-28.625 30.063-18.832 8.945 6.292 17.428 16.101 22.033 31.389 12.66 42.073 35.353 67.248 93.552 52.953l3.484 15.005s-128.596 43.502-149.132-80.515"/><path fill="#FFD200" d="M101.41 208.411s3.082 13.584 10.23 13.559c7.147-.026 6.582-4.606 5.119-13.559-1.464-8.954 9.159-6.301 7.729-16.513-1.429-10.212-2.114-9.801-11.47-9.193s-21.203 8.517-11.608 25.697z"/><path fill="#F4A28C" d="M307.219 330.459s6.933-4.006 13.011-2.448c6.231 1.6 6.865 10.289 1.087 13.122l-11.556 5.675-2.551-16.349z"/><path fill="#fff" d="m263.605 294.721-9.185 32.931h52.687l8.997-32.931z"/><path fill="#93CA88" d="m171.234 308.948 41.371-19.979s-5.239-45.351-41.371-48.338c-36.131-2.988-12.882 55.477 0 68.317"/><path fill="#fff" d="m171.234 308.948 41.371-19.979s-5.239-45.351-41.371-48.338c-36.131-2.988-12.882 55.477 0 68.317" opacity=".2"/><path fill="#A5A5A5" d="m277.849 303.606-3.672 13.885 20.826-6.942z"/><path fill="#CE8172" d="m114.533 240.63 6.24-1.84-4.263-18.413s-8.363-2.927-8.252-13.952c0 0-10.409-8.946 1.404-23.198 0 0-10.554 1.883-11.778 12.54 0 0-.463 6.052 3.518 12.644 0 0 3.098 13.576 10.229 13.559l2.893 18.66z" opacity=".31"/><path fill="#142A6F" d="m306.842 329.859-10.693 2.686 4.594 18.289 10.693-2.685z"/><path fill="#FFD200" d="M303.777 347.382a7.011 7.011 0 1 0 0-14.022 7.011 7.011 0 0 0 0 14.022"/><path fill="#CE8172" d="M186.326 301.655s20.86 62.805 112.666 42.329l1.319 5.239s-92.02 28.436-129.077-40.275z" opacity=".31"/><path fill="#000001" d="m186.325 301.655-15.091 7.293s-31.424-43.819-14.167-64.551c0 0 6.831 39.658 29.258 57.258" opacity=".08"/><path fill="#142A6F" d="M386.33 51.84H189.758v150.416H386.33z"/><path fill="#F4A28C" d="m295.543 66.306 12.258 27.016-15.956 11.838-3.176-25.415z"/><path fill="#CE8172" d="M288.754 80.464s10.024-1.558 11.308-4.52c0 0 8.423 15.194-9.681 16.675l-1.618-12.155z" opacity=".31"/><path fill="#93CA88" d="M282.104 114.302s-81.2 68.643-111.169-13.097l-13.944 8.397s9.801 103.448 131.764 56.496z"/><path fill="#fff" d="M282.104 114.302s-81.2 68.643-111.169-13.097l-13.944 8.397s9.801 103.448 131.764 56.496z" opacity=".2"/><path fill="#93CA88" d="M291.845 105.16s-31.15 23.052-21.315 49.536c9.836 26.485 32.143 47.56 32.143 47.56h83.649s-.891-20.647-3.33-43.237c-3.51-32.511-15.314-70.175-75.191-65.698z"/><path fill="#000001" d="M338 114.302s-11.162 11.23-6.514 25.466c4.648 14.235 19.979 59.5-14.406 55.22l27.725 3.356 28.967-3.356 12.755-30.165-22.513-31.741z" opacity=".08"/><path fill="#fff" d="M217.621 72.075v41.097l41.567-22.325z"/><path fill="#FFD200" d="m268.621 202.256-12.874-50.119h71.827l6.951 40.891 29.498 1.396v7.832z"/><path fill="#fff" d="M296.929 182.927a6.103 6.103 0 1 0 .001-12.207 6.103 6.103 0 0 0-.001 12.207"/><path fill="#F4A28C" d="M159.447 108.13s-11.616-11.359-6.035-20.381c5.573-9.031 18.918-7.619 17.523 13.456z"/><path fill="#93CA88" d="M358.613 103.782c10.605 4.665 21.699 12.703 27.914 26.51l-.206 71.956h-14.406l-6.061-12.378s7.422-29.952-16.033-52.961c-3.774-3.698-6.805-7.233-9.244-10.554-9.005-12.293 4.074-28.72 18.027-22.582z"/><path fill="#fff" d="M358.613 103.782c10.605 4.665 21.699 12.703 27.914 26.51l-.206 71.956h-14.406l-6.061-12.378s7.422-29.952-16.033-52.961c-3.774-3.698-6.805-7.233-9.244-10.554-9.005-12.293 4.074-28.72 18.027-22.582z" opacity=".2"/><path fill="#F4A28C" d="M300.02 68.54c-.094 2.474-.137 4.94.042 7.413.249 3.381-.299 8.509-5.512 10.058-8.047 2.388-11.599-10.358-11.599-10.358s-6.454-11.607 2.251-14.226c7.833-2.354 15.263-4.229 14.818 7.113"/><path fill="#FFD200" d="M278.089 57.3c-1.832 1.01-3.373 2.492-4.075 4.46-.659 1.85-.804 4.05.899 5.83 3.681 3.852 8.03 8.063 8.03 8.063s-3.339-6.556 2.533-6.565 10.931 3.912 14.535-.548 5.941-6.89 4.314-11.17c-1.635-4.28-1.378-9.648-7.772-7.26-6.394 2.397-3.903-2.533-7.533-5.7-3.629-3.168-9.51-2.705-8.988 1.754.454 3.895 1.712 9.117-1.943 11.137"/><path fill="#F4A28C" d="M283.516 76.124s-.89-3.895-4.306-3.364c-3.415.53-1.284 7.755 4.306 3.364M298.821 76.176s-1.609-3.655 1.455-5.265 5.65 5.462-1.455 5.265M371.915 202.256c0-7.413-5.581-13.679-12.96-14.424-4.134-.41-7.901.206-8.885 3.45-2.44 8.021 13.944 10.974 13.944 10.974z"/><path fill="#fff" d="M306.106 89.58s-16.778 5.95-17.445 18.208c0 0 17.274-1.044 25.44-14.792 0 0-2.397-4.51-7.995-3.415"/></svg>
